X:7223
T:The Portabello Hornpipe
O:england
M:4/4
L:1/8
K:G
DE/2F/2|G2GA G2B,E|DCB,A, G,A,B,G,|A,2AB A2GA|BGAG EFGE|
G2GA G2B,E|DCB,A, G,2Bc|dBGB cAFA|G2GA G2:|
|:Bc|d2de d2ef|gfed e2ef|edcB cBAG|FGAF D2CB,|
C2EC B,2DB,|A,2DB, G,2Bc|dBGB cAFA|G2GA G2:|


